src/main/resources/extra-icons/helmRequirementsYaml.svg

<svg width="16" height="16" viewBox="0 0 16 16" fill="none" xmlns="http://www.w3.org/2000/svg">
<path fill-rule="evenodd" clip-rule="evenodd" d="M3.95696 5.57418L5.08901 6.70623L3.4718 8.32344C2.31068 9.48456 2.31068 11.3671 3.4718 12.5282C4.63291 13.6893 6.51544 13.6893 7.67656 12.5282L9.29377 10.911L10.4258 12.043L8.80861 13.6603C7.02228 15.4466 4.12607 15.4466 2.33975 13.6603C0.553418 11.8739 0.553418 8.97772 2.33975 7.19139L3.95696 5.57418ZM5.57418 3.95696L7.19139 2.33975C8.97772 0.553418 11.8739 0.553418 13.6603 2.33975C15.4466 4.12607 15.4466 7.02228 13.6603 8.80861L12.043 10.4258L10.911 9.29377L12.5282 7.67656C13.6893 6.51544 13.6893 4.63291 12.5282 3.4718C11.3671 2.31068 9.48456 2.31068 8.32344 3.4718L6.70623 5.08901L5.57418 3.95696ZM5.00849 9.72165L9.71872 5.01142L10.9915 6.28421L6.28128 10.9944L5.00849 9.72165Z" fill="#9AA7B0"/>
</svg>

<svg width="16" height="16" viewBox="0 0 16 16" fill="none" xmlns="http://www.w3.org/2000/svg"><path fill-rule="evenodd" clip-rule="evenodd" d="m3.957 5.574 1.132 1.132-1.617 1.617a2.973 2.973 0 1 0 4.205 4.205l1.617-1.617 1.132 1.132-1.617 1.617a4.574 4.574 0 0 1-6.47-6.469l1.618-1.617Zm1.617-1.617L7.191 2.34a4.574 4.574 0 0 1 6.47 6.469l-1.618 1.617-1.132-1.132 1.617-1.617a2.973 2.973 0 0 0-4.205-4.205L6.706 5.089 5.574 3.957Zm-.566 5.765 4.71-4.71 1.274 1.272-4.71 4.71-1.274-1.272Z" fill="#9AA7B0"/></svg>
